X:0514
T:A Foreign Air.
M:2/4
L:1/16
Q:1/4=120
I: :: ::
Z:Jack Campin * www.campin.me.uk * 2009
K:G
d4    gfed   |e4    d2d2 |e2g2``f2``a2 |g4 b4 |\
d4    g2fe   |e4    d2e2 |d2c2``B2``A2 |G4 G4::
B2c2  d2cB   |A2B2  c2BA |B2c2  d2``cB |A4 D4 |\
d2d2  d2cB   |e2g2  g4   |d2B2``c2``A2 |G4 G4::
g2d2 Td3`c/d/|g2e2  e4   |e2g2``f2``a2 |g4 b4 |\
g2d2 Td3`c/d/|g2e2 Te4   |d2B2  c2``BA |G4 G4::
d2g2`f2a2    |g2b2``a2c'2|b2d'2 d'2`c'b|a4 d4 |\
e2g2`f2a2    |g2b2``a2c'2|b2d'2 d'c'ba |g4 G4:|

